Numix-GalliumOS/16/status/semi-starred.svg

<?xml version="1.0" encoding="UTF-8" standalone="no"?>
<svg
   xmlns:dc="http://purl.org/dc/elements/1.1/"
   xmlns:cc="http://creativecommons.org/ns#"
   xmlns:rdf="http://www.w3.org/1999/02/22-rdf-syntax-ns#"
   xmlns:svg="http://www.w3.org/2000/svg"
   xmlns="http://www.w3.org/2000/svg"
   xmlns:sodipodi="http://sodipodi.sourceforge.net/DTD/sodipodi-0.dtd"
   xmlns:inkscape="http://www.inkscape.org/namespaces/inkscape"
   viewBox="0 0 16 16"
   id="svg2"
   version="1.1"
   inkscape:version="0.91 r13725"
   width="100%"
   height="100%"
   sodipodi:docname="semi-starred.svg">
  <metadata
     id="metadata12">
    <rdf:RDF>
      <cc:Work
         rdf:about="">
        <dc:format>image/svg+xml</dc:format>
        <dc:type
           rdf:resource="http://purl.org/dc/dcmitype/StillImage" />
        <dc:title></dc:title>
      </cc:Work>
    </rdf:RDF>
  </metadata>
  <defs
     id="defs10" />
  <sodipodi:namedview
     pagecolor="#ffffff"
     bordercolor="#666666"
     borderopacity="1"
     objecttolerance="10"
     gridtolerance="10"
     guidetolerance="10"
     inkscape:pageopacity="0"
     inkscape:pageshadow="2"
     inkscape:window-width="1366"
     inkscape:window-height="704"
     id="namedview8"
     showgrid="false"
     inkscape:zoom="22.627417"
     inkscape:cx="7.0944121"
     inkscape:cy="8.363615"
     inkscape:window-x="0"
     inkscape:window-y="27"
     inkscape:window-maximized="1"
     inkscape:current-layer="svg2"
     inkscape:snap-intersection-paths="true">
    <inkscape:grid
       type="xygrid"
       id="grid3758" />
  </sodipodi:namedview>
  <path
     style="color:#000000;fill:#dfdd41;fill-opacity:1"
     d="M 8,0.75390625 C 7.0147483,0.78805544 6.4575689,4.3034599 5.6542969,4.8867188 4.8469699,5.4729224 1.3325971,4.8734354 1.0214844,5.8261719 0.71025238,6.7792695 3.8877445,8.413566 4.1914062,9.3691406 4.4949484,10.324335 2.861411,13.50887 3.6640625,14.101562 4.4670324,14.694486 6.9890613,12.154061 7.984375,12.158203 7.9888119,12.158221 7.995504,12.161989 8,12.162109 8.9745479,8.4811932 8.4236178,4.6095927 8,0.75390625 Z"
     id="path6"
     inkscape:connector-curvature="0"
     sodipodi:nodetypes="cssssccc" />
  <path
     style="opacity:1;fill:#808080;fill-opacity:1;stroke:none;stroke-width:0.5;stroke-linecap:round;stroke-linejoin:round;stroke-miterlimit:4;stroke-dasharray:none;stroke-opacity:1"
     d="M 8.015625 0.75 C 8.0102354 0.74997828 8.0053641 0.75372033 8 0.75390625 L 8 12.162109 C 9.0036831 12.188923 11.471812 14.747861 12.275391 14.164062 C 13.082887 13.577417 11.465863 10.353408 11.777344 9.4003906 C 12.088695 8.4477544 15.28426 6.8457383 14.980469 5.890625 C 14.676558 4.9351306 11.150466 5.5111024 10.347656 4.9179688 C 9.5451536 4.3250658 9.0105508 0.7538812 8.015625 0.75 z "
     id="rect4134" />
</svg>

<svg xmlns="http://www.w3.org/2000/svg" viewBox="0 0 16 16">
 <path d="m 8 0.754 c -0.985 0.034 -1.542 3.55 -2.346 4.133 -0.807 0.586 -4.322 -0.013 -4.633 0.939 -0.311 0.953 2.866 2.587 3.17 3.543 0.304 0.955 -1.33 4.14 -0.527 4.732 0.803 0.593 3.325 -1.948 4.32 -1.943 0.004 0 0.011 0.004 0.016 0.004 0.975 -3.681 0.424 -7.553 0 -11.408" style="fill:#dfdd41;fill-opacity:1;color:#000"/>
 <path d="m 8.02 0.75 c -0.005 0 -0.01 0.004 -0.016 0.004 l 0 11.408 c 1 0.027 3.472 2.586 4.275 2 c 0.807 -0.587 -0.81 -3.811 -0.498 -4.764 c 0.311 -0.953 3.507 -2.555 3.203 -3.51 c -0.304 -0.955 -3.83 -0.38 -4.633 -0.973 c -0.803 -0.593 -1.337 -4.164 -2.332 -4.168 z" style="fill:#808080;opacity:1;fill-opacity:1;stroke:none"/>
</svg>
